X: 110
T: Horses Are Coming
C: Teton Sioux band 1911-1914
N: Derived from sioux110.krn
O: South Dakota, U.S.A.
N: Teton Sioux Music by Frances Densmore, 1918
Z: transcribed to **kern format by Craig Sapp
L: 1/16
M: 2/4
Q: 1/4=58
K: G clef=bass
%%linebreak <none>
F2 G FF4 [I:setbarnb 1]||  
[M:3/4]E2 E2-E8 | 
E B, B, B,E4B,2 B, B, | 
B,8B,4 ]|:  
B, B,2 B, E2 E2 E2 (E B,) | 
B,8-B,3 B, | 
A,2> A,2 B,2> B,2 B,2 (B, A,) ||  
[M:2/4]B, A,2 A, G,2 G,2 | 
A, G,2 G, E,2 E,2 | 
E,8 | 
E, B,,2 B,,F,4 ||  
[M:3/4]E,2 E,2-E,8 | 
F, E,2 E, F,2 E,2 B,,2 B,, B,, ||  
[M:2/4]B,,8 | 
B,,8 :|]  



